src/assets/icons/arrow_down.svg

<?xml version="1.0" encoding="utf-8"?>
<!-- Generator: Adobe Illustrator 18.0.0, SVG Export Plug-In . SVG Version: 6.00 Build 0)  -->
<!DOCTYPE svg PUBLIC "-//W3C//DTD SVG 1.1//EN" "http://www.w3.org/Graphics/SVG/1.1/DTD/svg11.dtd">
<svg version="1.1" id="图层_1" xmlns="http://www.w3.org/2000/svg" xmlns:xlink="http://www.w3.org/1999/xlink" x="0px" y="0px"
	 viewBox="0 0 40 40" enable-background="new 0 0 40 40" xml:space="preserve">
<g>
	<g>
		<g>
			<path fill="#231815" d="M20,23.7c-0.7,0-1.3-0.3-1.8-0.7l-4.6-4.6c-0.2-0.2-0.2-0.5,0-0.7s0.5-0.2,0.7,0l4.6,4.6
				c0.6,0.6,1.5,0.6,2.1,0l4.6-4.6c0.2-0.2,0.5-0.2,0.7,0s0.2,0.5,0,0.7l-4.6,4.6C21.3,23.4,20.7,23.7,20,23.7z"/>
		</g>
	</g>
</g>
</svg>

<svg width="40" height="40" viewBox="0 0 40 40" fill="none" xmlns="http://www.w3.org/2000/svg">
    <path d="M20 23.7C19.3 23.7 18.7 23.4 18.2 23L13.6 18.4C13.4 18.2 13.4 17.9 13.6 17.7C13.8 17.5 14.1 17.5 14.3 17.7L18.9 22.3C19.5 22.9 20.4 22.9 21 22.3L25.6 17.7C25.8 17.5 26.1 17.5 26.3 17.7C26.5 17.9 26.5 18.2 26.3 18.4L21.7 23C21.3 23.4 20.7 23.7 20 23.7Z" fill="#28292E"/>
    </svg>
